svg/weather/moon_cloudy_fill.svg

<?xml version="1.0" encoding="UTF-8"?>
<svg width="24px" height="24px" viewBox="0 0 24 24" version="1.1" xmlns="http://www.w3.org/2000/svg" xmlns:xlink="http://www.w3.org/1999/xlink">
    <title>moon_cloudy_fill</title>
    <g id="页面-1" stroke="none" stroke-width="1" fill="none" fill-rule="evenodd">
        <g id="Weather" transform="translate(-480.000000, -48.000000)" fill-rule="nonzero">
            <g id="moon_cloudy_fill" transform="translate(480.000000, 48.000000)">
                 <path d="M24,0 L24,24 L0,24 L0,0 L24,0 Z M12.5934901,23.257841 L12.5819402,23.2595131 L12.5108777,23.2950439 L12.4918791,23.2987469 L12.4918791,23.2987469 L12.4767152,23.2950439 L12.4056548,23.2595131 C12.3958229,23.2563662 12.3870493,23.2590235 12.3821421,23.2649074 L12.3780323,23.275831 L12.360941,23.7031097 L12.3658947,23.7234994 L12.3769048,23.7357139 L12.4804777,23.8096931 L12.4953491,23.8136134 L12.4953491,23.8136134 L12.5071152,23.8096931 L12.6106902,23.7357139 L12.6232938,23.7196733 L12.6232938,23.7196733 L12.6266527,23.7031097 L12.609561,23.275831 C12.6075724,23.2657013 12.6010112,23.2592993 12.5934901,23.257841 L12.5934901,23.257841 Z M12.8583906,23.1452862 L12.8445485,23.1473072 L12.6598443,23.2396597 L12.6498822,23.2499052 L12.6498822,23.2499052 L12.6471943,23.2611114 L12.6650943,23.6906389 L12.6699349,23.7034178 L12.6699349,23.7034178 L12.678386,23.7104931 L12.8793402,23.8032389 C12.8914285,23.8068999 12.9022333,23.8029875 12.9078286,23.7952264 L12.9118235,23.7811639 L12.8776777,23.1665331 C12.8752882,23.1545897 12.8674102,23.1470016 12.8583906,23.1452862 L12.8583906,23.1452862 Z M12.1430473,23.1473072 C12.1332178,23.1423925 12.1221763,23.1452606 12.1156365,23.1525954 L12.1099173,23.1665331 L12.0757714,23.7811639 C12.0751323,23.7926639 12.0828099,23.8018602 12.0926481,23.8045676 L12.108256,23.8032389 L12.3092106,23.7104931 L12.3186497,23.7024347 L12.3186497,23.7024347 L12.3225043,23.6906389 L12.340401,23.2611114 L12.337245,23.2485176 L12.337245,23.2485176 L12.3277531,23.2396597 L12.1430473,23.1473072 Z" id="MingCute" fill-rule="nonzero"></path>
                <path d="M11,6 C13.6623,6 15.9179,7.73309 16.7033,10.1322 C19.1625,10.6813 21,12.8756 21,15.5 C21,18.4635122 18.6562522,20.8795407 15.7212095,20.9956329 L15.5,21 L6.5,21 C4.01472,21 2,18.9853 2,16.5 C2,14.5384 3.2545,12.8708 5.00531,12.2544 C5.00178,12.17 5,12.0852 5,12 C5,8.68629 7.68629,6 11,6 Z M14.9023286,4.67036233 L14.7991,4.42095 C14.4644,3.6754 15.1052,2.87623 15.8939,3.01543 C19.3641,3.6279 22.0002,6.65636 22.0002,10.3025 C22.0002,11.2503 21.822,12.1564 21.4973,12.9892 C20.7638,11.2391 19.2864,9.87787 17.4607,9.30094 C16.9763,8.14277 16.1895,7.1425 15.1991,6.3988 L15.2001,6.30268 L15.2001,6.30268 C15.2001,5.72632 15.0945245,5.17659265 14.9023286,4.67036233 L14.9023286,4.67036233 Z" id="形状" fill="#09244B"></path>
            </g>
        </g>
    </g>
</svg>

<svg xmlns="http://www.w3.org/2000/svg" width="24" height="24"><g fill="none" fill-rule="nonzero"><path d="M24 0v24H0V0h24ZM12.593 23.258l-.011.002-.071.035-.02.004-.014-.004-.071-.035c-.01-.004-.019-.001-.024.005l-.004.01-.017.428.005.02.01.013.104.074.015.004.012-.004.104-.074.012-.016.004-.017-.017-.427c-.002-.01-.009-.017-.017-.018Zm.265-.113-.013.002-.185.093-.01.01-.003.011.018.43.005.012.008.007.201.093c.012.004.023 0 .029-.008l.004-.014-.034-.614c-.003-.012-.01-.02-.02-.022Zm-.715.002a.023.023 0 0 0-.027.006l-.006.014-.034.614c0 .012.007.02.017.024l.015-.002.201-.093.01-.008.004-.011.017-.43-.003-.012-.01-.01-.184-.092Z"/><path fill="#09244B" d="M11 6a6.002 6.002 0 0 1 5.703 4.132 5.502 5.502 0 0 1-.982 10.864L15.5 21h-9a4.5 4.5 0 0 1-1.495-8.746A6 6 0 0 1 11 6Zm3.902-1.33-.103-.249a1.008 1.008 0 0 1 1.095-1.406 7.402 7.402 0 0 1 5.603 9.974 6.518 6.518 0 0 0-4.036-3.688 7.023 7.023 0 0 0-2.262-2.902l.001-.096c0-.577-.105-1.126-.298-1.633Z"/></g></svg>
